X: 24223
T: Lord McDonald's
R: reel
M: 4/4
K: Gmajor
|:BddB dBGB|defg aged|Bdde dBGB|dBAc BG ~G2|
BddB dBGB|defg aged|B/c/d ef gage|dBAc BG ~G2:|
|:dgbg agbg|dgbg ageg|dgbg agba|gedc BG ~G2|
dgbg agbg|dgbg ageg|bgaf gedB|dega bg ~g2:|
|:DGBG dGBG|cGBG AE ~E2|DGBG dG B/c/d|gedc BG ~G2
DGBG dGBG|cGBG AE ~E2|BGAF GEFD|DEGA BG ~G2:|

